packages/ffe-icons/icons/open/300/lg/tv_with_assistant.svg

<svg xmlns="http://www.w3.org/2000/svg" height="40" viewBox="0 -960 960 960" width="40"><path d="M420-464.616q14.692 0 25.038-10.346T455.384-500q0-14.692-10.346-25.038T420-535.384q-14.692 0-25.038 10.346T384.616-500q0 14.692 10.346 25.038T420-464.616Zm120 0q14.692 0 25.038-10.346T575.384-500q0-14.692-10.346-25.038T540-535.384q-14.692 0-25.038 10.346T504.616-500q0 14.692 10.346 25.038T540-464.616Zm-240 0q14.692 0 25.038-10.346T335.384-500q0-14.692-10.346-25.038T300-535.384q-14.692 0-25.038 10.346T264.616-500q0 14.692 10.346 25.038T300-464.616Zm360 0q14.692 0 25.038-10.346T695.384-500q0-14.692-10.346-25.038T660-535.384q-14.692 0-25.038 10.346T624.616-500q0 14.692 10.346 25.038T660-464.616ZM223.615-220.001l-21.923 62.05q-1.294 3.275-4.031 5.227-2.736 1.953-6.343 1.953h-3.022q-4.446 0-7.781-3.362-3.335-3.361-3.335-7.843v-58.025h-14.615q-25.609 0-44.086-18.478-18.478-18.477-18.478-44.086v-434.87q0-25.609 18.478-44.086 18.477-18.478 44.086-18.478h634.87q25.609 0 44.086 18.478 18.478 18.477 18.478 44.086v434.87q0 25.631-18.478 44.125-18.477 18.493-44.086 18.493H782.82v58.971q0 4.296-2.936 7.251-2.935 2.954-7.204 2.954h-3.962q-3.539 0-6.231-1.927-2.692-1.927-3.564-5.304l-21.154-61.999H223.615Zm-61.05-50.255h634.87q5.385 0 8.847-3.462 3.462-3.462 3.462-8.847v-434.87q0-5.385-3.462-8.847-3.462-3.462-8.847-3.462h-634.87q-5.385 0-8.847 3.462-3.462 3.462-3.462 8.847v434.87q0 5.385 3.462 8.847 3.462 3.462 8.847 3.462ZM480-500Z"/></svg>

<svg xmlns="http://www.w3.org/2000/svg" viewBox="0 -960 960 960" width="32" height="32"><path d="M420-464.62q14.69 0 25.04-10.34 10.34-10.35 10.34-25.04t-10.34-25.04q-10.35-10.34-25.04-10.34t-25.04 10.34q-10.34 10.35-10.34 25.04t10.34 25.04q10.35 10.34 25.04 10.34Zm120 0q14.69 0 25.04-10.34 10.34-10.35 10.34-25.04t-10.34-25.04q-10.35-10.34-25.04-10.34t-25.04 10.34q-10.34 10.35-10.34 25.04t10.34 25.04q10.35 10.34 25.04 10.34Zm-240 0q14.69 0 25.04-10.34 10.34-10.35 10.34-25.04t-10.34-25.04q-10.35-10.34-25.04-10.34t-25.04 10.34q-10.34 10.35-10.34 25.04t10.34 25.04q10.35 10.34 25.04 10.34Zm360 0q14.69 0 25.04-10.34 10.34-10.35 10.34-25.04t-10.34-25.04q-10.35-10.34-25.04-10.34t-25.04 10.34q-10.34 10.35-10.34 25.04t10.34 25.04q10.35 10.34 25.04 10.34ZM223.62-220l-21.93 62.05q-1.29 3.27-4.03 5.23-2.74 1.95-6.34 1.95h-3.02q-4.45 0-7.78-3.36-3.34-3.36-3.34-7.85V-220h-14.61q-25.61 0-44.09-18.48Q100-256.96 100-282.57v-434.86q0-25.61 18.48-44.09Q136.96-780 162.57-780h634.86q25.61 0 44.09 18.48Q860-743.04 860-717.43v434.86q0 25.64-18.48 44.13-18.48 18.49-44.09 18.49h-14.61v58.97q0 4.3-2.94 7.25-2.93 2.96-7.2 2.96h-3.96q-3.54 0-6.23-1.93-2.7-1.93-3.57-5.3l-21.15-62H223.62Zm-61.05-50.26h634.86q5.39 0 8.85-3.46t3.46-8.85v-434.86q0-5.39-3.46-8.85t-8.85-3.46H162.57q-5.39 0-8.85 3.46t-3.46 8.85v434.86q0 5.39 3.46 8.85t8.85 3.46ZM480-500Z"/></svg>
